icons/svg/steam.svg

﻿<?xml version="1.0" encoding="utf-8"?>
<!DOCTYPE svg PUBLIC "-//W3C//DTD SVG 1.1//EN" "http://www.w3.org/Graphics/SVG/1.1/DTD/svg11.dtd">
<svg xmlns="http://www.w3.org/2000/svg" xmlns:xlink="http://www.w3.org/1999/xlink" version="1.1" baseProfile="full" width="24" height="24" viewBox="0 0 24.00 24.00" enable-background="new 0 0 24.00 24.00" xml:space="preserve">
	<path fill="#000000" fill-opacity="1" stroke-width="0.2" stroke-linejoin="round" d="M 20.1429,7.78571C 21.3263,7.78571 22.2857,8.7451 22.2857,9.92857C 22.2857,11.112 21.3263,12.0714 20.1429,12.0714C 18.9594,12.0714 18,11.112 18,9.92857C 18,8.7451 18.9594,7.78571 20.1429,7.78571 Z M 3,6.92857C 4.65685,6.92857 6,8.27172 6,9.92857L 5.98369,10.2433L 12.3329,13.5359C 12.836,13.1547 13.463,12.9286 14.1429,12.9286L 16.2857,9.92857C 16.2857,7.79833 18.0126,6.07143 20.1429,6.07143C 22.2731,6.07143 24,7.79833 24,9.92857C 24,12.0588 22.2731,13.7857 20.1429,13.7857L 17.1429,15.9286C 17.1429,17.5854 15.7997,18.9286 14.1429,18.9286C 12.486,18.9286 11.1429,17.5854 11.1429,15.9286C 11.1429,15.891 11.1435,15.8536 11.1449,15.8164L 4.63833,12.4421C 4.16733,12.7498 3.60454,12.9286 3,12.9286C 1.34314,12.9286 -1.39645e-006,11.5854 -1.39645e-006,9.92857C -1.39645e-006,8.27172 1.34314,6.92857 3,6.92857 Z M 15.0331,14.9362C 15.6657,15.2586 15.9173,16.0328 15.5949,16.6655C 15.2726,17.2982 14.4983,17.5497 13.8657,17.2274L 12.0277,16.2742C 12.193,17.2933 13.0771,18.0714 14.1429,18.0714C 15.3263,18.0714 16.2857,17.112 16.2857,15.9286C 16.2857,14.7451 15.3263,13.7857 14.1429,13.7857C 13.8117,13.7857 13.4981,13.8608 13.2181,13.995L 15.0331,14.9362 Z M 3,7.78572C 1.81653,7.78572 0.857139,8.74511 0.857139,9.92858C 0.857139,11.112 1.81653,12.0714 3,12.0714C 3.24468,12.0714 3.47979,12.0304 3.69882,11.9549L 2.27616,11.2171C 1.64348,10.8947 1.39191,10.1205 1.71428,9.48784C 2.03665,8.85515 2.81088,8.60359 3.44356,8.92596L 5.13937,9.8054C 5.07555,8.67925 4.14212,7.78572 3,7.78572 Z M 20.1429,6.92858C 18.486,6.92858 17.1429,8.27172 17.1429,9.92858C 17.1429,11.5854 18.486,12.9286 20.1429,12.9286C 21.7997,12.9286 23.1429,11.5854 23.1429,9.92858C 23.1429,8.27172 21.7997,6.92858 20.1429,6.92858 Z "/>
</svg>

<svg xmlns="http://www.w3.org/2000/svg" version="1.1" baseProfile="full" width="24" height="24" viewBox="0 0 24.00 24.00" xml:space="preserve"><path fill="#000" fill-opacity="1" stroke-width=".2" stroke-linejoin="round" d="M20.143 7.786c1.183 0 2.143.96 2.143 2.143 0 1.182-.96 2.14-2.143 2.14-1.184 0-2.143-.958-2.143-2.14 0-1.185.96-2.144 2.143-2.144zM3 6.93c1.657 0 3 1.342 3 3l-.016.313 6.35 3.293c.502-.38 1.13-.607 1.81-.607l2.142-3c0-2.132 1.727-3.86 3.857-3.86S24 7.8 24 9.93c0 2.13-1.727 3.856-3.857 3.856l-3 2.143c0 1.655-1.343 3-3 3s-3-1.345-3-3c0-.04 0-.076.002-.114l-6.507-3.374c-.47.308-1.033.487-1.638.487-1.657 0-3-1.345-3-3 0-1.658 1.343-3 3-3zm12.033 8.006c.633.323.884 1.097.562 1.73-.322.632-1.097.884-1.73.56l-1.837-.952c.165 1.02 1.05 1.797 2.115 1.797 1.183 0 2.143-.958 2.143-2.14 0-1.185-.96-2.144-2.143-2.144-.33 0-.645.075-.925.21l1.815.94zM3 7.786c-1.183 0-2.143.96-2.143 2.143 0 1.182.96 2.14 2.143 2.14.245 0 .48-.04.7-.115l-1.424-.738c-.633-.322-.884-1.097-.562-1.73.323-.632 1.097-.883 1.73-.56l1.695.878C5.075 8.68 4.14 7.785 3 7.785zm17.143-.857c-1.657 0-3 1.342-3 3 0 1.655 1.343 3 3 3s3-1.345 3-3c0-1.658-1.343-3-3-3z"/></svg>
